X:1
T:Bogotá, 11.11.11.11 D
T:Bogotá, 11.11.11.11 D
T:John Harrison Tenney, 1889
T:Public Domain Courtesy of the Cyber Hymnal™
C:John Harrison Tenney, 1889
Z:Public Domain
Z:Courtesy of the Cyber Hymnal™
%%score ( 1 2 ) ( 3 4 )
L:1/8
Q:1/4=108
M:12/8
K:D
V:1 treble 
V:2 treble 
V:3 bass 
V:4 bass 
V:1
 [DF]2 [D^E] [DF]2 [DF] [FA]3 [DF]3 | [EG]2 [^DF] [EG]2 [CA] [=DF]6 | %2
 [DF]2 [D^E] [DF]2 [=EG] [GB]3 [FA]3 | [EB]2 [E^G] [EF]2 [EG] [EA]6 | %4
 [EG]2 [^DF] [EG]2 [EG] [Ge]3 [F^d]3 | [Ec]2 [GB] [FA]2 [EG] [DF]6 | %6
 [DF]2 [EG] [FA]2 [GB] [FA]3 !fermata![Fd]3 |"^riten." [FA]2 [FA]!>(! [EG]2!>)! [EG] [DF]6 | %8
"^A tempo" [CE]2 [^B,^D] [CE]2 [=DF] [FA]3 [EG]3 | [DF]2 [D^E] [DF]2 [A,=E] [A,D]6 | %10
 [EG]2 [DF] [CE]2 [^B,^D] [CE]3 [=DF]3 | [DA]2 [DG] [DF]2 [D^E] [DF]6 | %12
 [GA]2 [GB] [GA]2 [GB] [FA]3 [DF]3 | [Fd]2 [Ge] [Fd]2 [Ec] [DB]6 | %14
 (AB)[Ec] [Dd]2 [Gc] [Fd]3 (D2 E) | [DF]2 [DA] [CE]2 [CF] D6 |] %16
V:2
 x12 | x12 | x12 | x12 | x12 | x12 | x12 | x12 | x12 | x12 | x12 | x12 | x12 | x12 | E2 x6 D3 x | %15
 x6 D6 |] %16
V:3
 [D,A,]2 [D,^G,] [D,A,]2 [D,A,] [D,D]3 [D,A,]3 | [A,,A,]2 [A,,A,] [A,,A,]2 [A,,A,] [D,A,]6 | %2
 [D,A,]2 [D,^G,] [D,A,]2 [D,A,] [D,D]3 [D,D]3 | [E,C]2 [E,B,] [E,D]2 [E,D] [A,,C]6 | %4
 [A,,A,]2 [A,,A,] [A,,A,]2 [A,,A,] [A,,A,]3 [A,,A,]3 | [A,,A,]2 [A,,C] [A,,D]2 [A,,A,] [D,A,]6 | %6
 [D,A,]2 [D,A,] [D,D]2 [D,D] [D,D]3 !fermata![D,A,]3 | A,2 A, [A,,A,]2 [A,,A,] [D,A,]6 | %8
 [A,,A,]2 [A,,A,] [A,,A,]2 [A,,A,] [A,,A,]3 [A,,A,]3 | [D,A,]2 [D,^G,] [D,A,]2 [D,=G,] [D,F,]6 | %10
 [A,,A,]2 [A,,A,] [A,,A,]2 [A,,A,] [A,,A,]3 [A,,A,]3 | [D,=C]2 [D,B,] [D,A,]2 [D,^G,] [D,A,]6 | %12
 [E,C]2 [E,C] [A,,C]2 [A,,C] [D,D]3 [D,A,]3 | [B,,B,]2 [B,,B,] [B,,B,]2 [F,^A,] [G,B,]6 | %14
 (CB,)[=G,A,] [F,A,]2 [E,A,] [D,A,]3 [B,,^G,]3 | [A,,A,]2 [A,,F,] [A,,G,]2 [A,,G,] [D,F,]6 |] %16
V:4
 x12 | x12 | x12 | x12 | x12 | x12 | x12 | A,2 A, x9 | x12 | x12 | x12 | x12 | x12 | x12 | %14
 ^G,2 x10 | x12 |] %16

